src/icons/dn.svg

<svg viewBox="0 0 61 32" xmlns="http://www.w3.org/2000/svg">
  <title>Dagens Næringsliv</title>
  <path
    fill-rule="evenodd"
    clip-rule="evenodd"
    d="M9.29717 32H14.3236C25.2231 32 29.6713 24.3736 29.6708 15.3794C29.6708 8.16739 25.6234 0.0435791 14.8583 0.0435791H7.38398H0V1.20406C0.0552595 1.20406 0.110208 1.20392 0.164844 1.20377C1.0338 1.20148 1.82398 1.19939 2.535 1.7843C3.29212 2.40599 3.38062 3.27635 3.38062 10.6127V18.7779V21.4309C3.38062 28.601 3.29212 29.6372 2.535 30.2593C1.77927 30.881 0.845623 30.881 0 30.881V32H9.29717ZM9.83249 1.40637H13.4795C19.4401 1.40637 22.9996 7.62368 22.9991 16.3277C22.9991 25.4877 19.0402 30.7103 13.746 30.7103C13.3461 30.7103 9.7866 30.6684 9.7866 30.6684L9.83249 1.40637Z"
    fill="currentColor"></path>
  <path
    d="M60.1055 1.11656C57.3109 1.11656 55.3144 2.10867 55.2252 6.4496C55.1809 8.39248 55.137 15.3377 55.137 15.3377V22.6145V22.6554V31.9564H55.0926H53.1405L34.3269 7.77198C34.3269 9.67352 34.3722 12.3192 34.3722 16.0813C34.3722 19.7191 34.3722 23.6053 34.4166 25.5482C34.5049 29.8891 36.5013 30.8817 39.2969 30.8817V31.956H35.1703H27.3619V30.8817C30.1565 30.8817 32.1539 29.8891 32.2422 25.5482C32.2865 23.6053 32.3304 16.0813 32.3304 16.0813L32.3757 5.20902C30.3783 2.52162 29.802 1.28148 27.2727 1.11613V0.041338H31.7546C32.9077 0.041338 37.256 0 37.256 0L53.0952 20.0916V15.3377C53.0952 11.6995 53.0952 8.39248 53.0508 6.4496C52.9626 2.10867 50.9661 1.11656 48.1706 1.11656V0.0417731H52.2971H60.1055V1.11656Z"
    fill="currentColor"></path>
</svg>

<svg xmlns="http://www.w3.org/2000/svg" viewBox="0 0 61 32">
  <title>Dagens Næringsliv</title>
  <path fill="var(--logo-fill-color)" d="M9.297 32h5.027c10.9 0 15.347-7.626 15.347-16.62C29.67 8.166 25.623.043 14.858.043H0v1.16h.165c.869-.003 1.659-.005 2.37.58.757.622.846 1.492.846 8.829V21.43c0 7.17-.089 8.206-.846 8.828-.756.622-1.69.622-2.535.622V32h9.297Zm.535-30.594h3.647c5.961 0 9.52 6.218 9.52 14.922 0 9.16-3.959 14.382-9.253 14.382-.4 0-3.96-.042-3.96-.042l.046-29.262Z"/>
  <path fill="var(--logo-fill-color)" d="M60.105 1.117c-2.794 0-4.79.992-4.88 5.333-.044 1.942-.088 8.888-.088 8.888V31.956H53.14L34.328 7.772c0 1.902.045 4.547.045 8.31 0 3.637 0 7.523.045 9.466.088 4.341 2.084 5.334 4.88 5.334v1.074H27.362v-1.074c2.795 0 4.792-.993 4.88-5.334.044-1.943.088-9.467.088-9.467l.046-10.872c-1.998-2.687-2.574-3.928-5.103-4.093V.041h4.482C32.908.041 37.256 0 37.256 0l15.84 20.092v-4.754c0-3.638 0-6.946-.045-8.888-.088-4.341-2.085-5.333-4.88-5.333V.042h11.935v1.075Z"/>
</svg>
